korla/apps/scalable/com.github.plugarut.pwned-checker.svg

<svg clip-rule="evenodd" fill-rule="evenodd" stroke-linejoin="round" stroke-miterlimit="2" viewBox="0 0 48 48" xmlns="http://www.w3.org/2000/svg">
 <linearGradient id="a" x2="1" gradientTransform="matrix(0 -33.6872 33.6872 0 923.28 40.4502)" gradientUnits="userSpaceOnUse">
  <stop stop-color="#2f404f" offset="0"/>
  <stop stop-color="#4b5b69" offset="1"/>
 </linearGradient>
 <path d="m39.44 45.668h-30.88c-3.438 0-6.228-2.79-6.228-6.228v-30.88c0-3.438 2.79-6.228 6.228-6.228h30.88c3.438 0 6.228 2.79 6.228 6.228v30.88c0 3.438-2.79 6.228-6.228 6.228z" fill="url(#a)"/>
 <path d="m9 13v7h2v-7zm8 6c-1.097 0-2 .903-2 2s.903 2 2 2 2-.903 2-2-.903-2-2-2zm6 5v2h7v-2zm9 0v2h7v-2zm-15 3c-1.097 0-2 .903-2 2 .001.853.548 1.616 1.355 1.891l-.724 3.109h1.369c.975-1.639 2.257-3.014 2-5 0-1.097-.903-2-2-2z" fill="#d5dde1" fill-rule="nonzero"/>
</svg>

<svg xmlns="http://www.w3.org/2000/svg" width="48" height="48" version="1">
 <rect style="fill:#4b5b69" width="40" height="40" x="4" y="4" rx="2" ry="2"/>
 <path style="opacity:0.2" d="m 9,14 v 7 h 2 v -7 z m 8,6 a 2,2 0 0 0 -2,2 2,2 0 0 0 2,2 2,2 0 0 0 2,-2 2,2 0 0 0 -2,-2 z m 6,5 v 2 h 7 v -2 z m 9,0 v 2 h 7 v -2 z m -15,3 a 2,2 0 0 0 -2,2 2,2 0 0 0 1.355469,1.890625 L 15.630859,35 H 17 c 0.974512,-1.638885 2.256793,-3.014468 2,-5 a 2,2 0 0 0 -2,-2 z"/>
 <path style="fill:#ffffff" d="M 9 13 L 9 20 L 11 20 L 11 13 L 9 13 z M 17 19 A 2 2 0 0 0 15 21 A 2 2 0 0 0 17 23 A 2 2 0 0 0 19 21 A 2 2 0 0 0 17 19 z M 23 24 L 23 26 L 30 26 L 30 24 L 23 24 z M 32 24 L 32 26 L 39 26 L 39 24 L 32 24 z M 17 27 A 2 2 0 0 0 15 29 A 2 2 0 0 0 16.355469 30.890625 L 15.630859 34 L 17 34 C 17.974512 32.361115 19.256793 30.985532 19 29 A 2 2 0 0 0 17 27 z"/>
 <path fill="#fff" opacity=".1" d="m6 4c-1.108 0-2 0.892-2 2v1c0-1.108 0.892-2 2-2h36c1.108 0 2 0.892 2 2v-1c0-1.108-0.892-2-2-2h-36z"/>
 <path opacity=".2" d="m6 45c-1.108 0-2-0.892-2-2v-1c0 1.108 0.892 2 2 2h36c1.108 0 2-0.892 2-2v1c0 1.108-0.892 2-2 2h-36z"/>
</svg>
